X: 2
T: The Doubtful Shepherd
N: 1780
Z: John Chambers <jc@trillian.mit.edu>
P: AABBB
M: C|
L: 1/8
K: G
|: "G"g2d2 cBAG | "D7"F2A2 A4 | "C"E2GE "D7"F2AF | "G"G2B2 d2g2 \
|  "G"g2d2 cBAG | "D7"F2A2 A4 | "C"E2GE "D7"F2AF | "G"G2G2 G4 :|
|::"G"dBdB G2G2 | "D7"AFAF D4 | "C"E2GE "D7"F2AF | "C"c2B2 "D7"B2A2 \
|  "G"dBdB G2G2 | "D7"AFAF D4 | "G"B2dB "C"c2ec | "D7"d2f2 "G"g4 ::|
%%sep 1 1 10cm
